src/assets/svg/2-home/1-world-explorer.svg

<svg width="40" height="40" viewBox="0 0 40 40" fill="none" xmlns="http://www.w3.org/2000/svg">
<path d="M18.5978 40C16.0066 39.8665 13.5793 39.2491 11.3161 38.1477C9.05289 37.0463 7.08487 35.6028 5.41205 33.8173C3.73924 32.0317 2.41902 29.9541 1.45141 27.5845C0.483805 25.2148 0 22.695 0 20.025C0 17.2549 0.516605 14.6516 1.54982 12.2153C2.58303 9.77889 3.98524 7.65957 5.75646 5.85732C7.52768 4.05507 9.6105 2.62829 12.0049 1.57697C14.3993 0.525657 16.9578 0 19.6802 0C24.5674 0 28.8151 1.56863 32.4231 4.70588C36.0312 7.84314 38.2452 11.7814 39.0652 16.5207H36.064C35.5064 13.7171 34.3419 11.214 32.5707 9.01126C30.7995 6.80851 28.5855 5.15645 25.9287 4.05507V4.95619C25.9287 6.12432 25.5351 7.14226 24.7478 8.01001C23.9606 8.87776 22.993 9.31164 21.845 9.31164H17.5646V13.6671C17.5646 14.2345 17.3432 14.7017 16.9004 15.0688C16.4576 15.436 15.9574 15.6195 15.3998 15.6195H11.3161V20.025H16.7282V26.2829H13.4317L3.39483 16.0701C3.23083 16.7376 3.11603 17.3967 3.05043 18.0476C2.98483 18.6984 2.95203 19.3575 2.95203 20.025C2.95203 24.5307 4.44444 28.4189 7.42927 31.6896C10.4141 34.9604 14.1369 36.7292 18.5978 36.9962V40ZM37.8844 38.6984L31.2915 31.99C30.6027 32.4906 29.8565 32.8744 29.0529 33.1414C28.2493 33.4084 27.4211 33.5419 26.5683 33.5419C24.2394 33.5419 22.2632 32.7159 20.6396 31.0638C19.016 29.4118 18.2042 27.4009 18.2042 25.0313C18.2042 22.6617 19.016 20.6508 20.6396 18.9987C22.2632 17.3467 24.2394 16.5207 26.5683 16.5207C28.8971 16.5207 30.8733 17.3467 32.4969 18.9987C34.1205 20.6508 34.9323 22.6617 34.9323 25.0313C34.9323 25.899 34.7929 26.7418 34.5141 27.5594C34.2353 28.3771 33.8663 29.1531 33.4071 29.8874L40 36.5457L37.8844 38.6984ZM26.5683 30.5382C28.0771 30.5382 29.3563 30.0042 30.4059 28.9362C31.4555 27.8682 31.9803 26.5665 31.9803 25.0313C31.9803 23.496 31.4555 22.1944 30.4059 21.1264C29.3563 20.0584 28.0771 19.5244 26.5683 19.5244C25.0594 19.5244 23.7802 20.0584 22.7306 21.1264C21.681 22.1944 21.1562 23.496 21.1562 25.0313C21.1562 26.5665 21.681 27.8682 22.7306 28.9362C23.7802 30.0042 25.0594 30.5382 26.5683 30.5382Z" fill="url(#paint0_linear_418_9)" fill-opacity="0.8"/>
<defs>
<linearGradient id="paint0_linear_418_9" x1="20" y1="17" x2="20" y2="40" gradientUnits="userSpaceOnUse">
<stop stop-color="#FDA916"/>
<stop offset="1" stop-color="#E9E8E8" stop-opacity="0.6"/>
</linearGradient>
</defs>
</svg>

<svg width="40" height="40" fill="none" xmlns="http://www.w3.org/2000/svg"><path d="M18.598 40c-2.591-.133-5.019-.75-7.282-1.852a20.006 20.006 0 0 1-5.904-4.33c-1.673-1.786-2.993-3.864-3.96-6.233C.483 25.214 0 22.694 0 20.024c0-2.77.517-5.373 1.55-7.81C2.583 9.78 3.985 7.66 5.756 5.857c1.772-1.802 3.854-3.229 6.249-4.28C14.399.526 16.958 0 19.68 0c4.887 0 9.135 1.569 12.743 4.706 3.608 3.137 5.822 7.075 6.642 11.815h-3.001c-.558-2.804-1.722-5.307-3.493-7.51-1.771-2.202-3.985-3.855-6.642-4.956v.901a4.399 4.399 0 0 1-1.181 3.054c-.787.868-1.755 1.302-2.903 1.302h-4.28v4.355c0 .568-.222 1.035-.665 1.402-.442.367-.943.55-1.5.55h-4.084v4.406h5.412v6.258h-3.296L3.395 16.07a14.289 14.289 0 0 0-.345 1.978c-.065.65-.098 1.31-.098 1.977 0 4.506 1.492 8.394 4.477 11.665 2.985 3.27 6.708 5.04 11.169 5.306V40Zm19.286-1.302-6.593-6.708c-.688.5-1.434.884-2.238 1.151a7.83 7.83 0 0 1-2.485.4c-2.329 0-4.305-.825-5.928-2.477-1.624-1.652-2.436-3.663-2.436-6.033 0-2.37.812-4.38 2.436-6.032 1.623-1.652 3.6-2.478 5.928-2.478 2.33 0 4.305.826 5.929 2.478 1.623 1.652 2.435 3.663 2.435 6.032 0 .868-.14 1.71-.418 2.528a11.183 11.183 0 0 1-1.107 2.328L40 36.546l-2.116 2.152Zm-11.316-8.16c1.51 0 2.788-.534 3.838-1.602 1.05-1.068 1.574-2.37 1.574-3.905 0-1.535-.524-2.837-1.574-3.905-1.05-1.068-2.329-1.602-3.838-1.602s-2.788.534-3.837 1.602c-1.05 1.068-1.575 2.37-1.575 3.905 0 1.536.525 2.837 1.575 3.905 1.05 1.068 2.328 1.602 3.837 1.602Z" fill="url(#a)" fill-opacity=".8"/><defs><linearGradient id="a" x1="20" y1="17" x2="20" y2="40" gradientUnits="userSpaceOnUse"><stop stop-color="#FDA916"/><stop offset="1" stop-color="#E9E8E8" stop-opacity=".6"/></linearGradient></defs></svg>
